svg/700/outlined/humidity_percentage-fill.svg

<svg xmlns="http://www.w3.org/2000/svg" width="48" height="48" viewBox="0 -960 960 960"><path d="M580.118-250Q601-250 615.5-264.618q14.5-14.617 14.5-35.5Q630-321 615.382-335.5q-14.617-14.5-35.5-14.5Q559-350 544.5-335.382q-14.5 14.617-14.5 35.5Q530-279 544.618-264.5q14.617 14.5 35.5 14.5ZM378-256l246-246-42-42-246 246 42 42Zm2.118-194Q401-450 415.5-464.618q14.5-14.617 14.5-35.5Q430-521 415.382-535.5q-14.617-14.5-35.5-14.5Q359-550 344.5-535.382q-14.5 14.617-14.5 35.5Q330-479 344.618-464.5q14.617 14.5 35.5 14.5Zm99.779 395q-147.659 0-246.278-101.165Q135-257.329 135-408q0-105.91 85.5-231.455Q306-765 480-913q174 148 260 273.545Q826-513.91 826-408q0 150.671-99.222 251.835Q627.556-55 479.897-55Z"/></svg>

<svg xmlns="http://www.w3.org/2000/svg" width="48" height="48" viewBox="0 -960 960 960"><path d="M580.12-250q20.88 0 35.38-14.62 14.5-14.62 14.5-35.5 0-20.88-14.62-35.38-14.62-14.5-35.5-14.5-20.88 0-35.38 14.62-14.5 14.62-14.5 35.5 0 20.88 14.62 35.38 14.62 14.5 35.5 14.5ZM378-256l246-246-42-42-246 246 42 42Zm2.12-194q20.88 0 35.38-14.62 14.5-14.62 14.5-35.5 0-20.88-14.62-35.38-14.62-14.5-35.5-14.5-20.88 0-35.38 14.62-14.5 14.62-14.5 35.5 0 20.88 14.62 35.38 14.62 14.5 35.5 14.5ZM479.9-55q-147.66 0-246.28-101.16Q135-257.33 135-408q0-105.91 85.5-231.46Q306-765 480-913q174 148 260 273.54Q826-513.91 826-408q0 150.67-99.22 251.84Q627.56-55 479.9-55Z"/></svg>
